packages/blockchain-info-components/src/Images/img/source-of-wealth.svg

<svg fill="none" height="32" viewBox="0 0 32 32" width="32" xmlns="http://www.w3.org/2000/svg"><path d="m16 6c-5.52 0-10 4.48-10 10s4.48 10 10 10 10-4.48 10-10-4.48-10-10-10zm1.41 16.09v1.91h-2.67v-1.93c-1.71-.36-3.16-1.46-3.27-3.4h1.96c.1 1.05.82 1.87 2.65 1.87 1.96 0 2.4-.98 2.4-1.59 0-.83-.44-1.61-2.67-2.14-2.48-.6-4.18-1.62-4.18-3.67 0-1.72 1.39-2.84 3.11-3.21v-1.93h2.67v1.95c1.86.45 2.79 1.86 2.85 3.39h-1.96c-.05-1.11-.64-1.87-2.22-1.87-1.5 0-2.4.68-2.4 1.64 0 .84.65 1.39 2.67 1.91s4.18 1.39 4.18 3.91c-.01 1.83-1.38 2.83-3.12 3.16z" fill="#0c6cf2"/></svg>

<svg width="32" height="32" viewBox="0 0 32 32" fill="none" xmlns="http://www.w3.org/2000/svg">
<path d="M16 6C10.48 6 6 10.48 6 16C6 21.52 10.48 26 16 26C21.52 26 26 21.52 26 16C26 10.48 21.52 6 16 6ZM17.41 22.09V24H14.74V22.07C13.03 21.71 11.58 20.61 11.47 18.67H13.43C13.53 19.72 14.25 20.54 16.08 20.54C18.04 20.54 18.48 19.56 18.48 18.95C18.48 18.12 18.04 17.34 15.81 16.81C13.33 16.21 11.63 15.19 11.63 13.14C11.63 11.42 13.02 10.3 14.74 9.93V8H17.41V9.95C19.27 10.4 20.2 11.81 20.26 13.34H18.3C18.25 12.23 17.66 11.47 16.08 11.47C14.58 11.47 13.68 12.15 13.68 13.11C13.68 13.95 14.33 14.5 16.35 15.02C18.37 15.54 20.53 16.41 20.53 18.93C20.52 20.76 19.15 21.76 17.41 22.09Z" fill="#0C6CF2"/>
</svg>
